docs/graphics/year-in-review/figma.svg

<svg xmlns="http://www.w3.org/2000/svg" fill="none" viewBox="0 0 1275 430"><path fill="#fff" stroke="#111" stroke-width="3.636" d="M203.139 190.495H15.451v80.892H203.14c22.338 0 40.447-18.109 40.447-40.446 0-22.338-18.109-40.446-40.447-40.446ZM203.139 291.382H15.451v80.892H203.14c22.338 0 40.447-18.108 40.447-40.446 0-22.337-18.109-40.446-40.447-40.446Z"/><path fill="#111" stroke="#111" stroke-width="3.636" d="M726.667 287.747c-21.836 0-39.538-17.702-39.538-39.538 0-21.835 17.702-39.537 39.538-39.537 21.835 0 39.537 17.702 39.537 39.537 0 21.836-17.702 39.538-39.537 39.538ZM644.866 125.962h38.628v79.075h-38.628c-21.836 0-39.537-17.702-39.537-39.537 0-21.836 17.701-39.538 39.537-39.538Z"/><path fill="#fff" stroke="#111" stroke-width="3.636" d="M725.758 125.962h-42.264v79.075h42.264c21.836 0 39.537-17.702 39.537-39.537 0-21.836-17.701-39.538-39.537-39.538ZM645.32 207.764h38.174v79.983H645.32c-22.087 0-39.991-17.905-39.991-39.992 0-22.087 17.904-39.991 39.991-39.991Z"/><path fill="#111" stroke="#111" stroke-width="3.636" d="M645.32 291.382h38.174v40.901c0 21.585-17.498 39.083-39.083 39.083-21.585 0-39.082-17.498-39.082-39.083v-.909c0-22.087 17.904-39.992 39.991-39.992Z"/><path fill="#111" d="M302.978 412.266H0V166.863l302.978 245.403ZM785.888 95.868a62.47 62.47 0 0 1-3.816-1.098c1.297.347 2.568.713 3.816 1.098 28.122 7.157 83.175 1.732 106.043-72.667-6.659 31.364-6.784 97.118 57.395 116.337 1.064.272 2.086.563 3.064.868a110.554 110.554 0 0 1-3.064-.868c-27.794-7.121-83.741-1.874-107.971 72.418 7.917-30.99 7.54-96.672-55.467-116.088Z"/><path stroke="#111" stroke-width="3.636" d="M782.072 94.77c26.639 8.614 85.906 6.361 109.859-71.57-6.763 31.857-6.786 99.188 60.459 117.206-26.529-8.29-85.877-5.586-111.035 71.55 8.074-31.604 7.521-99.286-59.283-117.186Z"/><path fill="#111" d="M347.506 323.994c-.884.249-1.742.461-2.569.638a73.422 73.422 0 0 1 2.569-.638c18.619-5.241 48.592-26.721 36.997-77.291 6.609 20.326 28.452 58.325 71.905 48.029.705-.197 1.392-.37 2.059-.52-.692.186-1.378.359-2.059.52-18.417 5.153-48.965 26.828-38.192 77.79-5.758-20.528-27.867-58.318-70.71-48.528Z"/><path stroke="#111" stroke-width="3.636" d="M344.937 324.632c18.249-3.905 51.711-24.959 39.566-77.929 6.713 20.644 29.14 59.52 73.964 47.509-18.078 4.057-51.436 25.398-40.251 78.31-5.872-20.935-28.749-59.821-73.279-47.89Z"/><path stroke="#E9E4FF" stroke-width="3.636" d="M876.251 83.926c1.605 10.375 7.988 33.348 20.675 42.237"/><path stroke="#F8F7FF" stroke-width="3.636" d="M401.014 285.753c5.028 4.868 17.665 14.506 27.984 14.124"/><path fill="#111" stroke="#111" stroke-width="3.636" d="M1155.48 347.274h37.72v-77.256h-37.72c-21.33 0-38.63 17.294-38.63 38.628s17.3 38.628 38.63 38.628ZM1107.31 26.433h-37.72v77.256h37.72c21.33 0 38.63-17.294 38.63-38.628s-17.3-38.629-38.63-38.629ZM1234.55 26.433h-37.72v77.256h37.72c21.34 0 38.63-17.294 38.63-38.628s-17.29-38.629-38.63-38.629ZM1028.23 184.581h37.72v-77.256h-37.72c-21.33 0-38.625 17.294-38.625 38.628s17.295 38.628 38.625 38.628ZM1155.48 184.581h37.72v-77.256h-37.72c-21.33 0-38.63 17.294-38.63 38.628s17.3 38.628 38.63 38.628ZM1107.31 188.217h-37.72v77.256h37.72c21.33 0 38.63-17.294 38.63-38.628s-17.3-38.628-38.63-38.628ZM1234.55 188.217h-37.72v77.256h37.72c21.34 0 38.63-17.294 38.63-38.628s-17.29-38.628-38.63-38.628ZM1028.23 347.274h37.72v-77.256h-37.72c-21.33 0-38.625 17.294-38.625 38.628s17.295 38.628 38.625 38.628ZM1107.31 350.001h-37.72v77.257h37.72c21.33 0 38.63-17.294 38.63-38.628s-17.3-38.629-38.63-38.629ZM1234.55 350.001h-37.72v77.257h37.72c21.34 0 38.63-17.294 38.63-38.628s-17.29-38.629-38.63-38.629Z"/></svg>

<svg  viewBox="0 0 1275 430" fill="none" xmlns="http://www.w3.org/2000/svg">
<path d="M203.139 190.495H15.4513V271.387H203.139C225.477 271.387 243.586 253.278 243.586 230.941C243.586 208.603 225.477 190.495 203.139 190.495Z" fill="white" stroke="#111111" stroke-width="3.63561"/>
<path d="M203.139 291.382H15.4513V372.274H203.139C225.477 372.274 243.586 354.166 243.586 331.828C243.586 309.491 225.477 291.382 203.139 291.382Z" fill="white" stroke="#111111" stroke-width="3.63561"/>
<path d="M726.667 287.747C704.831 287.747 687.129 270.045 687.129 248.209C687.129 226.374 704.831 208.672 726.667 208.672C748.502 208.672 766.204 226.374 766.204 248.209C766.204 270.045 748.502 287.747 726.667 287.747Z" fill="#111111" stroke="#111111" stroke-width="3.63561"/>
<path d="M644.866 125.962H683.494V205.037H644.866C623.03 205.037 605.329 187.335 605.329 165.5C605.329 143.664 623.03 125.962 644.866 125.962Z" fill="#111111" stroke="#111111" stroke-width="3.63561"/>
<path d="M725.758 125.962H683.494V205.037H725.758C747.594 205.037 765.295 187.335 765.295 165.5C765.295 143.664 747.594 125.962 725.758 125.962Z" fill="white" stroke="#111111" stroke-width="3.63561"/>
<path d="M645.32 207.764H683.494V287.747H645.32C623.233 287.747 605.329 269.842 605.329 247.755C605.329 225.668 623.233 207.764 645.32 207.764Z" fill="white" stroke="#111111" stroke-width="3.63561"/>
<path d="M645.32 291.382H683.494V332.283C683.494 353.868 665.996 371.366 644.411 371.366C622.826 371.366 605.329 353.868 605.329 332.283V331.374C605.329 309.287 623.233 291.382 645.32 291.382Z" fill="#111111" stroke="#111111" stroke-width="3.63561"/>
<path d="M302.978 412.266H0V166.863L302.978 412.266Z" fill="#111111"/>
<path d="M785.888 95.8677C784.553 95.528 783.279 95.16 782.072 94.7696C783.369 95.1171 784.64 95.4833 785.888 95.8677C814.01 103.025 869.063 97.5997 891.931 23.2005C885.272 54.5654 885.147 120.319 949.326 139.538C950.39 139.81 951.412 140.101 952.39 140.406C951.353 140.128 950.332 139.839 949.326 139.538C921.532 132.417 865.585 137.664 841.355 211.956C849.272 180.966 848.895 115.284 785.888 95.8677Z" fill="#111111"/>
<path d="M782.072 94.7696C808.711 103.384 867.978 101.131 891.931 23.2005C885.168 55.0568 885.145 122.388 952.39 140.406C925.861 132.116 866.513 134.82 841.355 211.956C849.429 180.352 848.876 112.67 782.072 94.7696Z" stroke="#111111" stroke-width="3.63561"/>
<path d="M347.506 323.994C346.622 324.243 345.764 324.455 344.937 324.632C345.802 324.401 346.658 324.188 347.506 323.994C366.125 318.753 396.098 297.273 384.503 246.703C391.112 267.029 412.955 305.028 456.408 294.732C457.113 294.535 457.8 294.362 458.467 294.212C457.775 294.398 457.089 294.571 456.408 294.732C437.991 299.885 407.443 321.56 418.216 372.522C412.458 351.994 390.349 314.204 347.506 323.994Z" fill="#111111"/>
<path d="M344.937 324.632C363.186 320.727 396.648 299.673 384.503 246.703C391.216 267.347 413.643 306.223 458.467 294.212C440.389 298.269 407.031 319.61 418.216 372.522C412.344 351.587 389.467 312.701 344.937 324.632Z" stroke="#111111" stroke-width="3.63561"/>
<path d="M876.251 83.9258C877.856 94.3011 884.239 117.274 896.926 126.163" stroke="#E9E4FF" stroke-width="3.63561"/>
<path d="M401.014 285.753C406.042 290.621 418.679 300.259 428.998 299.877" stroke="#F8F7FF" stroke-width="3.63561"/>
<path d="M1155.48 347.274L1193.2 347.274L1193.2 270.018L1155.48 270.018C1134.15 270.018 1116.85 287.312 1116.85 308.646C1116.85 329.98 1134.15 347.274 1155.48 347.274Z" fill="#111111" stroke="#111111" stroke-width="3.63561"/>
<path d="M1107.31 26.4325H1069.59V103.689H1107.31C1128.64 103.689 1145.94 86.3947 1145.94 65.0609C1145.94 43.727 1128.64 26.4325 1107.31 26.4325Z" fill="#111111" stroke="#111111" stroke-width="3.63561"/>
<path d="M1234.55 26.4325H1196.83V103.689H1234.55C1255.89 103.689 1273.18 86.3947 1273.18 65.0609C1273.18 43.727 1255.89 26.4325 1234.55 26.4325Z" fill="#111111" stroke="#111111" stroke-width="3.63561"/>
<path d="M1028.23 184.581L1065.95 184.581L1065.95 107.325L1028.23 107.325C1006.9 107.325 989.605 124.619 989.605 145.953C989.605 167.287 1006.9 184.581 1028.23 184.581Z" fill="#111111" stroke="#111111" stroke-width="3.63561"/>
<path d="M1155.48 184.581L1193.2 184.581L1193.2 107.325L1155.48 107.325C1134.15 107.325 1116.85 124.619 1116.85 145.953C1116.85 167.287 1134.15 184.581 1155.48 184.581Z" fill="#111111" stroke="#111111" stroke-width="3.63561"/>
<path d="M1107.31 188.217H1069.59V265.473H1107.31C1128.64 265.473 1145.94 248.179 1145.94 226.845C1145.94 205.511 1128.64 188.217 1107.31 188.217Z" fill="#111111" stroke="#111111" stroke-width="3.63561"/>
<path d="M1234.55 188.217H1196.83V265.473H1234.55C1255.89 265.473 1273.18 248.179 1273.18 226.845C1273.18 205.511 1255.89 188.217 1234.55 188.217Z" fill="#111111" stroke="#111111" stroke-width="3.63561"/>
<path d="M1028.23 347.274L1065.95 347.274L1065.95 270.018L1028.23 270.018C1006.9 270.018 989.605 287.312 989.605 308.646C989.605 329.98 1006.9 347.274 1028.23 347.274Z" fill="#111111" stroke="#111111" stroke-width="3.63561"/>
<path d="M1107.31 350.001H1069.59V427.258H1107.31C1128.64 427.258 1145.94 409.964 1145.94 388.63C1145.94 367.296 1128.64 350.001 1107.31 350.001Z" fill="#111111" stroke="#111111" stroke-width="3.63561"/>
<path d="M1234.55 350.001H1196.83V427.258H1234.55C1255.89 427.258 1273.18 409.964 1273.18 388.63C1273.18 367.296 1255.89 350.001 1234.55 350.001Z" fill="#111111" stroke="#111111" stroke-width="3.63561"/>
</svg>
